src/images/Pills_Purple_Title-01.svg

<svg width="136" height="126" viewBox="0 0 136 126" fill="none" xmlns="http://www.w3.org/2000/svg">
<g clip-path="url(#clip0)">
<path d="M135.037 24.4193C138.301 14.7196 133.075 4.21324 123.364 0.952695C113.653 -2.30785 103.135 2.91213 99.8708 12.6119L85.6158 54.9702C82.3516 64.6699 87.5775 75.1763 97.2883 78.4368C106.999 81.6974 117.517 76.4774 120.782 66.7777L135.037 24.4193Z" fill="#BFA6C2"/>
<path d="M93.2026 32.4177L128.369 44.2252L120.657 67.1388C119.09 71.7968 115.734 75.642 111.328 77.8285C106.922 80.015 101.827 80.3638 97.1639 78.798C92.5006 77.2322 88.651 73.8802 86.462 69.4794C84.273 65.0785 83.9239 59.9893 85.4914 55.3314L93.2026 32.4177Z" fill="#966891"/>
<path d="M67.214 110.367C76.9412 107.156 82.2203 96.6761 79.0052 86.96C75.7902 77.2439 65.2984 71.9709 55.5712 75.1823L13.0929 89.2064C3.36576 92.4178 -1.91335 102.898 1.30172 112.614C4.5168 122.33 15.0086 127.603 24.7358 124.391L67.214 110.367Z" fill="#BFA6C2"/>
<path d="M35.6602 81.4478L47.1526 116.626L24.1615 124.12C21.8473 124.875 19.407 125.166 16.98 124.978C14.553 124.791 12.1867 124.127 10.0164 123.026C7.84602 121.925 5.91406 120.408 4.33078 118.561C2.7475 116.714 1.54393 114.574 0.788775 112.262C-0.728073 107.596 -0.328933 102.519 1.89854 98.1466C4.12602 93.7742 7.99973 90.4635 12.669 88.9416L35.6602 81.4478Z" fill="#966891"/>
<g style="mix-blend-mode:multiply" opacity="0.43">
<g style="mix-blend-mode:multiply" opacity="0.43">
<path d="M78.9988 87.6328C78.7349 86.8453 78.414 86.078 78.0388 85.337C76.96 87.5548 75.4469 89.534 73.5891 91.1577C71.7313 92.7814 69.5665 94.0166 67.2227 94.7904L24.7286 108.862C20.4713 110.255 15.8536 110.066 11.725 108.329C7.59637 106.592 4.23452 103.425 2.25794 99.409C0.155041 103.742 -0.170019 108.723 1.35209 113.292C2.90551 117.95 6.24272 121.804 10.6337 124.011C15.0246 126.218 20.1119 126.598 24.7826 125.068L67.2091 111.05C71.8737 109.496 75.7324 106.16 77.9416 101.771C80.1508 97.3834 80.5309 92.3 78.9988 87.6328Z" fill="#BFA6C2"/>
</g>
</g>
<g style="mix-blend-mode:multiply" opacity="0.43">
<g style="mix-blend-mode:multiply" opacity="0.43">
<path d="M122.683 0.864399C121.884 0.619931 121.072 0.425977 120.249 0.283691C121.424 2.46226 122.149 4.85422 122.381 7.31781C122.613 9.7814 122.348 12.2665 121.601 14.6258L108.081 57.22C106.714 61.4849 103.849 65.1122 100.015 67.4328C96.1813 69.7535 91.6364 70.611 87.219 69.847C89.4869 74.1113 93.335 77.32 97.9405 78.7872C102.629 80.2556 107.709 79.8115 112.071 77.5521C116.433 75.2926 119.723 71.4012 121.222 66.7274L134.743 24.1332C136.217 19.45 135.777 14.3742 133.517 10.0143C131.257 5.65453 127.362 2.36506 122.683 0.864399Z" fill="#BFA6C2"/>
</g>
</g>
</g>
<defs>
<clipPath id="clip0">
<rect width="136" height="126" fill="white"/>
</clipPath>
</defs>
</svg>

<svg width="136" height="126" viewBox="0 0 136 126" fill="none" xmlns="http://www.w3.org/2000/svg"><g clip-path="url(#clip0)"><path d="M135.037 24.42c3.264-9.7-1.962-20.207-11.673-23.467-9.711-3.26-20.229 1.96-23.493 11.659L85.616 54.97c-3.264 9.7 1.962 20.206 11.672 23.467 9.711 3.26 20.229-1.96 23.494-11.66l14.255-42.358z" fill="#BFA6C2"/><path d="M93.203 32.418l35.166 11.807-7.712 22.914a18.532 18.532 0 0 1-9.329 10.69 18.57 18.57 0 0 1-14.164.97 18.543 18.543 0 0 1-10.702-9.32 18.51 18.51 0 0 1-.97-14.148l7.71-22.913z" fill="#966891"/><path d="M67.214 110.367c9.727-3.211 15.006-13.69 11.791-23.407-3.215-9.716-13.707-14.99-23.434-11.778L13.093 89.206C3.366 92.418-1.914 102.898 1.3 112.614c3.216 9.716 13.707 14.989 23.434 11.777l42.479-14.024z" fill="#BFA6C2"/><path d="M35.66 81.448l11.493 35.178-22.991 7.494a18.538 18.538 0 0 1-7.182.858 18.542 18.542 0 0 1-12.65-6.417 18.507 18.507 0 0 1-3.541-6.299 18.497 18.497 0 0 1 1.11-14.115 18.53 18.53 0 0 1 10.77-9.205l22.991-7.494z" fill="#966891"/><path d="M78.999 87.633a17.145 17.145 0 0 0-.96-2.296 18.45 18.45 0 0 1-10.817 9.453l-42.494 14.072a18.61 18.61 0 0 1-13.003-.533 18.58 18.58 0 0 1-9.467-8.92 18.442 18.442 0 0 0-.906 13.883 18.576 18.576 0 0 0 9.281 10.719 18.61 18.61 0 0 0 14.15 1.057l42.426-14.018a18.593 18.593 0 0 0 10.732-9.279A18.562 18.562 0 0 0 79 87.633zM122.682.864a19.89 19.89 0 0 0-2.433-.58 18.472 18.472 0 0 1 1.352 14.342L108.08 57.22a18.556 18.556 0 0 1-8.065 10.213 18.593 18.593 0 0 1-12.796 2.414 18.504 18.504 0 0 0 10.721 8.94 18.624 18.624 0 0 0 14.131-1.235 18.592 18.592 0 0 0 9.151-10.825l13.52-42.594a18.56 18.56 0 0 0-1.225-14.119 18.6 18.6 0 0 0-10.835-9.15z" fill="#BFA6C2" opacity=".43"/></g><defs><clipPath id="clip0"><path fill="#fff" d="M0 0h136v126H0z"/></clipPath></defs></svg>
